X:470
M:C
L:1/8
Q:1/4=140
K:C
c/B/A/G/ c>E D2C:|
||g|e/f/g c>g a/g/f/e/ g>e|a>ada b/a/g/f/ a>g|e/f/g c>g a/g/f/e/ g>c|
e/f/g d>e =c>de>d|c/B/A/G/ c>E D2C||

